packages/crayons-icon/icons/indent-left.svg

<?xml version="1.0" encoding="UTF-8"?>
<svg width="14px" height="14px" viewBox="0 0 14 14" version="1.1" xmlns="http://www.w3.org/2000/svg" xmlns:xlink="http://www.w3.org/1999/xlink">
    <!-- Generator: Sketch 52.6 (67491) - http://www.bohemiancoding.com/sketch -->
    <title>icon/indent-left</title>
    <desc>Created with Sketch.</desc>
    <g id="Icons-✅" stroke="none" stroke-width="1" fill="none" fill-rule="evenodd">
        <g id="Icons" transform="translate(-81.000000, -1861.000000)" fill="currentColor">
            <g id="icon/indent-left" transform="translate(81.000000, 1861.000000)">
                <g id="indent-left">
                    <path d="M0.7,1.4 C0.313400681,1.39999999 1.47513921e-08,1.08659932 1.47513921e-08,0.7 C1.47513921e-08,0.313400681 0.313400681,8.14701651e-09 0.7,4.51860771e-14 L13.3,4.51860771e-14 C13.5500859,-3.72652531e-09 13.7811748,0.133419242 13.9062178,0.349999997 C14.0312608,0.566580752 14.0312608,0.833419248 13.9062178,1.05 C13.7811748,1.26658076 13.5500859,1.4 13.3,1.4 L0.7,1.4 Z M0.7,5.6 C0.313400675,5.6 -1.24344979e-14,5.28659932 -1.24344979e-14,4.9 C-1.24344979e-14,4.51340068 0.313400675,4.2 0.7,4.2 L8.7,4.2 C9.08659932,4.2 9.4,4.51340068 9.4,4.9 C9.4,5.28659932 9.08659932,5.6 8.7,5.6 L0.7,5.6 Z M0.7,9.8 C0.313400675,9.8 -1.24344979e-14,9.48659932 -1.24344979e-14,9.1 C-1.24344979e-14,8.71340068 0.313400675,8.4 0.7,8.4 L8.7,8.4 C9.08659932,8.4 9.4,8.71340068 9.4,9.1 C9.4,9.48659932 9.08659932,9.8 8.7,9.8 L0.7,9.8 Z M13.3,12.6 C13.6865993,12.6 14,12.9134007 14,13.3 C14,13.6865993 13.6865993,14 13.3,14 L0.7,14 C0.313400675,14 -8.8817842e-16,13.6865993 -8.8817842e-16,13.3 C-8.8817842e-16,12.9134007 0.313400675,12.6 0.7,12.6 L13.3,12.6 Z M13.65,4.68 C13.8662496,4.80721183 13.9993054,5.03910907 14,5.29 L14,8.57 C14.0101625,8.81110316 13.8971664,9.04086187 13.7,9.18 C13.4818818,9.29916707 13.2181182,9.29916707 13,9.18 L10.11,7.54 C9.89502518,7.41196028 9.76331804,7.18021659 9.76331804,6.93 C9.76331804,6.67978341 9.89502518,6.44803972 10.11,6.32 L12.95,4.68 C13.1681182,4.56083293 13.4318818,4.56083293 13.65,4.68 Z" id="Combined-Shape"></path>
                </g>
            </g>
        </g>
    </g>
</svg>

<svg viewBox="0 0 14 14"><path d="M.7 1.4A.7.7 0 0 1 .7 0h12.6a.7.7 0 0 1 0 1.4H.7zm0 4.2a.7.7 0 0 1 0-1.4h8a.7.7 0 0 1 0 1.4h-8zm0 4.2a.7.7 0 0 1 0-1.4h8a.7.7 0 0 1 0 1.4h-8zm12.6 2.8a.7.7 0 0 1 0 1.4H.7a.7.7 0 0 1 0-1.4h12.6zm.35-7.92a.71.71 0 0 1 .35.61v3.28a.71.71 0 0 1-.3.61.73.73 0 0 1-.7 0l-2.89-1.64a.71.71 0 0 1 0-1.22l2.84-1.64a.73.73 0 0 1 .7 0z" fill="currentColor" fill-rule="evenodd"/></svg>
